icons-rebrand/svg/clean-up-light.svg

<svg width="32" height="32" viewBox="0 0 32 32" fill="none" xmlns="http://www.w3.org/2000/svg">
<path d="M26.4922 4.29964C25.3612 3.50769 23.8023 3.78256 23.0104 4.91357L18.5475 11.2873C17.5751 11.175 16.6712 11.3713 15.8601 11.7303C14.4947 12.3346 13.3948 13.3981 12.6464 14.1464C11.1702 15.6226 9.2485 17.0475 7.37888 17.5149C7.29058 17.537 7.17472 17.5635 7.04889 17.5924C6.86198 17.6352 6.65306 17.683 6.47972 17.7288C6.16206 17.8127 5.81131 17.9246 5.51493 18.0969C5.21648 18.2704 4.91649 18.5391 4.80815 18.9557C4.70065 19.369 4.81364 19.8064 5.06604 20.2481C6.12836 22.107 8.46502 24.0359 10.663 25.4803C11.7728 26.2097 12.8706 26.8306 13.7921 27.2714C14.2525 27.4916 14.6753 27.6699 15.038 27.7942C15.3873 27.9141 15.7258 28 16 28C16.539 28 17.0546 27.7341 17.5233 27.3592C17.9989 26.9787 18.4809 26.4421 18.9626 25.8C19.9269 24.5143 20.9427 22.733 21.9474 20.7236C22.8735 18.8712 23.2887 17.1448 23.11 15.651C23.0441 15.0994 22.8976 14.5853 22.6716 14.1146L27.1062 7.78146C27.8981 6.65044 27.6232 5.09158 26.4922 4.29964ZM22.0894 13.2026C21.7336 12.7699 21.2892 12.3904 20.7572 12.0713C20.3641 11.8354 19.978 11.6566 19.6001 11.5274L23.8295 5.48715C24.3047 4.80854 25.24 4.64362 25.9186 5.11879C26.5972 5.59395 26.7622 6.52927 26.287 7.20788L22.0894 13.2026ZM17.4162 21.2773C17.5693 21.0476 17.5072 20.7372 17.2775 20.584C17.0477 20.4308 16.7373 20.4929 16.5841 20.7227C16.1115 21.4315 15.2648 22.4023 14.3465 23.2595C13.4127 24.131 12.4807 24.8128 11.842 25.0257C11.8345 25.0282 11.8271 25.0308 11.8197 25.0337C11.6186 24.9082 11.4158 24.7784 11.2122 24.6446C10.3456 24.0752 9.48121 23.4438 8.69539 22.7865C9.98351 22.3108 10.9776 21.7296 12.3537 20.3536C12.549 20.1583 12.549 19.8417 12.3537 19.6464C12.1584 19.4512 11.8418 19.4512 11.6466 19.6464C10.2077 21.0854 9.27717 21.5473 7.84202 22.0257L7.83711 22.0273C7.02799 21.2671 6.35678 20.4912 5.93426 19.7519C5.75043 19.4302 5.75972 19.2698 5.77595 19.2074C5.79134 19.1483 5.8425 19.0632 6.01753 18.9614C6.19463 18.8585 6.43968 18.7736 6.73503 18.6956C6.91502 18.6481 7.06942 18.6132 7.22672 18.5777C7.35168 18.5495 7.4785 18.5208 7.62142 18.4851C9.7517 17.9525 11.8297 16.3774 13.3535 14.8536C14.1051 14.1019 15.0886 13.1654 16.2648 12.6447C17.4084 12.1386 18.7344 12.0238 20.2427 12.9287C21.3626 13.6007 21.9729 14.5643 22.1171 15.7698C22.2642 16.9996 21.9295 18.5232 21.0529 20.2764C20.0577 22.267 19.0733 23.9857 18.1626 25.2C17.7066 25.8079 17.2824 26.2713 16.8986 26.5783C16.5078 26.8909 16.2109 27 16 27C15.8991 27 15.6907 26.9609 15.3624 26.8483C15.0473 26.7403 14.6616 26.5787 14.2236 26.3692C13.8053 26.1692 13.3451 25.9282 12.8611 25.6538C13.5626 25.2607 14.3306 24.6422 15.0288 23.9905C15.9854 23.0977 16.8887 22.0685 17.4162 21.2773Z" fill="#0F0F0F"/>
</svg>

<svg xmlns="http://www.w3.org/2000/svg" width="32" height="32" viewBox="0 0 32 32"><path d="M26.492 4.3a2.5 2.5 0 0 0-3.482.614l-4.463 6.373c-.972-.112-1.876.084-2.687.443-1.365.605-2.465 1.668-3.214 2.416-1.476 1.477-3.398 2.901-5.267 3.369-.088.022-.204.049-.33.077-.187.043-.396.091-.57.137-.317.084-.668.196-.964.368-.299.173-.599.442-.707.859-.107.413.006.85.258 1.292 1.062 1.859 3.399 3.788 5.597 5.232a27.53 27.53 0 0 0 3.13 1.791c.46.22.882.399 1.245.523.35.12.688.206.962.206.539 0 1.055-.266 1.523-.64.476-.381.958-.918 1.44-1.56.964-1.286 1.98-3.067 2.984-5.076.927-1.853 1.342-3.58 1.163-5.073a4.862 4.862 0 0 0-.438-1.536l4.434-6.334a2.5 2.5 0 0 0-.614-3.481Zm-4.403 8.903a5.109 5.109 0 0 0-1.332-1.132 6.058 6.058 0 0 0-1.157-.544l4.23-6.04a1.5 1.5 0 0 1 2.457 1.72l-4.198 5.996Zm-4.673 8.074a.5.5 0 0 0-.832-.554c-.473.709-1.32 1.68-2.237 2.537-.934.871-1.866 1.553-2.505 1.766a.456.456 0 0 0-.022.008 30.754 30.754 0 0 1-.608-.39c-.866-.569-1.73-1.2-2.517-1.857 1.289-.476 2.283-1.057 3.659-2.433a.5.5 0 0 0-.707-.708c-1.44 1.44-2.37 1.901-3.805 2.38l-.005.001c-.809-.76-1.48-1.536-1.903-2.275-.184-.322-.174-.482-.158-.545.015-.059.067-.144.242-.246.177-.102.422-.187.717-.265.18-.048.334-.083.492-.118.125-.029.252-.057.394-.093 2.13-.532 4.209-2.108 5.732-3.631.752-.752 1.736-1.689 2.912-2.21 1.143-.505 2.47-.62 3.978.285 1.12.672 1.73 1.635 1.874 2.84.147 1.23-.188 2.754-1.064 4.507-.995 1.991-1.98 3.71-2.89 4.924-.456.608-.88 1.071-1.264 1.378-.391.313-.688.422-.899.422-.1 0-.31-.04-.638-.152-.315-.108-.7-.27-1.138-.479-.419-.2-.879-.44-1.363-.715.702-.393 1.47-1.012 2.168-1.663.956-.893 1.86-1.922 2.387-2.714Z"/></svg>
